!!!COM: Bartók, Béla
!!!OTL: Sonata No. 1 for Violin and Piano
!!!OMV: III: Allegro
!!!example: 333
!!!work: Bar-26
**kern	**kern	**dynam	**kern	**dynam
*part2	*part2	*part2	*part1	*part1
*staff3	*staff2	*	*staff1	*
*I"Piano	*	*	*I"Violin	*
*I'Pno.	*	*	*I'Vln.	*
*clefF4	*clefF4	*	*clefG2	*
*k[]	*k[]	*	*k[]	*
*C:	*C:	*	*C:	*
*M2/4	*M2/4	*	*M2/4	*
*MM121	*MM121	*	*MM121	*
=222	=222	=222	=222	=222
2r	8r	.	2r	.
.	(8FF#X 8AA 8Dn 8E#X	f	.	.
.	8FFF#XL) 8AAA 8DDn 8EE#X	.	.	.
.	8FF#J 8AA 8Dn 8E#	.	.	.
=223	=223	=223	=223	=223
2r	8FFF#XL 8AAA 8DDn 8EE#X	.	2r	.
.	8FF#XJ 8AA 8Dn 8E#X	.	.	.
.	8FFF#L 8AAA 8DDn 8EE#	.	.	.
.	8FF#J 8AA 8Dn 8E#	.	.	.
=224	=224	=224	=224	=224
2r	(8FF#XL 8AA 8Dn 8E#X	.	2r	.
.	8FFF#XJ) 8AAA 8DDn 8EE#X	.	.	.
!	!LO:TX:t=dim.	!	!	!
.	8FF#L 8AA 8D 8E#	.	.	.
.	8FF#J 8AA 8D 8E#	.	.	.
=225	=225	=225	=225	=225
!	!	!	!LO:TX:a:B:t=Accel.	!
2r	8FFF#XL 8AAA 8DDn 8EE#X	.	2r	.
.	8FF#XJ 8AA 8Dn 8E#X	.	.	.
.	8FFF#L 8AAA 8DDn 8EE#	.	.	.
.	8FF#J 8AA 8Dn 8E#	.	.	.
=226	=226	=226	=226	=226
2r	(8FF#XL 8AA 8Dn 8E#X	.	2r	.
.	8FFF#XJ) 8AAA 8DDn 8EE#X	.	.	.
.	8FF#L 8AA 8D 8E#	.	.	.
.	8FF#J 8AA 8D 8E#	.	.	.
=227	=227	=227	=227	=227
2r	8FFF#X^L 8AAA 8DDn 8EE#X	p	8r	.
.	8FF#XJ 8AA 8Dn 8E#X	.	(16BLL	p
.	.	.	16c#XJJ)	.
.	8FFF#^L 8AAA 8DDn 8EE#	.	(16c#LL	.
.	.	.	16d)	.
.	8FF#J 8AA 8Dn 8E#	.	(16d	.
.	.	.	16eJJ)	.
=228	=228	=228	=228	=228
2r	(8FF#XL 8AA 8Dn 8E#X	.	16fLL	.
.	.	.	16f	.
.	8FFF#X^J) 8AAA 8DDn 8EE#X	.	(16g	.
.	.	.	16eJJ)	.
.	8FF#L 8AA 8D 8E#	.	(16fLL	.
.	.	.	16e)	.
.	8FF#J 8AA 8D 8E#	.	16e	.
.	.	.	16gJJ	.
=229	=229	=229	=229	=229
2r	8FFF#X^L 8AAA 8DDn 8EE#X	.	16fLL	.
.	.	.	16f	.
.	8FF#XJ 8AA 8Dn 8E#X	.	(16g	.
.	.	.	16eJJ)	.
.	8FFF#^L 8AAA 8DDn 8EE#	.	(16fLL	<
.	.	.	16e)	.
.	8FF#J 8AA 8Dn 8E#	.	16e	.
.	.	.	16gJJ	.
=230	=230	=230	=230	=230
2r	(8FF#XL 8AA 8Dn 8E#X	.	(16dLL	.
.	.	.	16c#X)	.
.	8FFF#X^J) 8AAA 8DDn 8EE#X	.	16c#	.
.	.	.	16eJJ	.
!	!LO:TX:i:t=sempre p	!	!	!
.	8FF#L 8AA 8D 8E#	.	([4B	.
.	8FF#J 8AA 8D 8E#	.	.	.
=231	=231	=231	=231	=231
2r	8FFF#X^L 8AAA 8DDn 8EE#X	.	4B]	.
.	8FF#XJ 8AA 8Dn 8E#X	.	.	.
.	8FFF#^L 8AAA 8DDn 8EE#	.	4a#X^^)	[ f
.	8FF#J 8AA 8Dn 8E#	.	.	.
=232	=232	=232	=232	=232
2r	8r	.	2r	.
.	(8FFF#X 8DDn 8EE#X	f	.	.
.	8FF#XL) 8AA 8Dn 8E#X	.	.	.
.	8FFF#J 8DDn 8EE#	.	.	.
=233	=233	=233	=233	=233
!	!LO:TX:t=dim.	!	!	!
2r	(8FF#XL 8AA 8Dn 8E#X	.	2r	.
.	8FFF#XJ) 8DDn 8EE#X	.	.	.
.	8FF#L 8AA 8Dn 8E#	.	.	.
.	8FF#J 8AA 8Dn 8E#	.	.	.
=234	=234	=234	=234	=234
2r	8FFF#X^L 8DDn 8EE#X	p	8r	.
.	8FF#XJ 8AA 8Dn 8E#X	.	(16BLL	p
.	.	.	16c#XJJ)	.
.	8FF#L 8AA 8Dn 8E#	.	(16dLL	.
.	.	.	16e)	.
.	8FFF#^J 8DDn 8EE#	.	(16f	.
.	.	.	16gJJ)	.
=235	=235	=235	=235	=235
2r	8FF#XL 8AA 8Dn 8E#X	.	16a-XLL	.
.	.	.	16a-	.
.	8FF#J 8AA 8Dn 8E#	.	(16b-X	.
.	.	.	16gJJ)	.
.	8FFF#X^L 8DDn 8EE#X	.	(16a-LL	.
.	.	.	16g)	.
.	8FF#J 8AA 8Dn 8E#	.	16g	.
.	.	.	16b-JJ	.
=236	=236	=236	=236	=236
2r	8FFF#X^L 8DDn 8EE#X	.	(16a-XLL	.
.	.	.	16g)	.
.	8FF#XJ 8AA 8Dn 8E#X	.	16g	.
.	.	.	16b-XJJ	.
.	8FF#L 8AA 8Dn 8E#	.	16fLL	.
.	.	.	16f	.
.	8FFF#^J 8DDn 8EE#	.	(16g	.
.	.	.	16eJJ)	.
=237	=237	=237	=237	=237
2r	8FF#XL 8AA 8Dn 8E#X	.	(16fLL	.
.	.	.	16e)	.
.	8FF#J 8AA 8Dn 8E#	.	16e	.
.	.	.	16gJJ	.
.	8FFF#X^L 8DDn 8EE#X	.	(16dLL	<
.	.	.	16c#X)	.
.	8FF#J 8AA 8Dn 8E#	.	16c#	.
.	.	.	16eJJ	.
=238	=238	=238	=238	=238
2r	8FFF#X^L 8DDn 8EE#X	.	(16BLL	.
.	.	.	16c#X)	.
.	8FF#XJ 8AA 8Dn 8E#X	.	16c#	.
.	.	.	16AJJ	.
!	!LO:TX:i:t=sempre p	!	!	!
.	8FF#L 8AA 8Dn 8E#	.	([4B	.
.	8FFF#^J 8DDn 8EE#	.	.	.
=239	=239	=239	=239	=239
2r	8FF#XL 8AA 8Dn 8E#X	.	4B]	.
.	8FF#J 8AA 8Dn 8E#	.	.	.
.	8FFF#X^L 8DDn 8EE#X	.	8ccn)	[ f
.	8FF#J 8AA 8Dn 8E#	.	8r	.
=240	=240	=240	=240	=240
!	!LO:TX:t=poco f	!	!	!
8r	8r	.	2r	.
(8FF#X^ 8AA	8C 8E-X 8Fn 8A-X 8Bn	.	.	.
8FFF#XL) 8AAA	8r	>	.	.
8FF#J 8AA	8C 8E- 8F 8A- 8B	.	.	.
=241	=241	=241	=241	=241
8FFF#X^L 8AAA	4r	.	8r	.
8FF#XJ 8AA	.	.	(16BLL	p
.	.	.	16dJJ)	.
8r	8C 8E-X 8F 8A-X 8Bn	] p	(16eLL	.
.	.	.	16g)	.
8FFF#^ 8AAA	8r	.	(16g#X	.
.	.	.	16a-XJJ)	.
=242	=242	=242	=242	=242
8FF#XL 8AAn	8C 8E-X 8F 8A-X 8Bn	.	16bLL	.
.	.	.	16b	.
8FFF#X^J 8AAA	8r	.	(16cc#X	.
.	.	.	16a#XJJ)	.
8FF#L 8AA	8CL 8E- 8F 8A- 8Bn	.	(16bLL	.
.	.	.	16a#)	.
8FF#J 8AA	8CJ 8E- 8F 8A- 8Bn	.	16a#	.
.	.	.	16f##XJJ	.
=243	=243	=243	=243	=243
8FFF#X^L 8AAA	4r	.	16bLL	.
.	.	.	16b	.
8FF#XJ 8AA	.	.	(16cc#X	.
.	.	.	16a#XJJ)	.
8r	8C 8E-X 8F 8A-X 8Bn	.	(16bLL	.
.	.	.	16a#)	.
8FFF#^ 8AAA	8r	.	16a#	.
.	.	.	16f##XJJ	.
=244	=244	=244	=244	=244
8FF#XL 8AAn	8C 8E-X 8F 8A-X 8Bn	.	(16bLL	<
.	.	.	16a#X)	.
8FFF#X^J 8AAA	8r	.	16a#	.
.	.	.	16f##XJJ	.
8FF#L 8AA	8CL 8E- 8F 8A- 8Bn	.	(16bLL	.
.	.	.	16a#)	.
8FF#J 8AA	8CJ 8E- 8F 8A- 8Bn	.	16a#	.
.	.	.	16f##JJ	.
=245	=245	=245	=245	=245
8FFF#X^L 8AAA	4r	.	16eLL	.
.	.	.	16e	.
8FF#XJ 8AA	.	.	(16f#X	.
.	.	.	16dJJ)	.
8r	8C 8E-X 8F 8A-X 8Bn	<	16eLL	.
.	.	.	(16c#X	.
8FFF#^ 8AAA	8r	.	16c#)	.
.	.	.	16AnJJ	[[
=	=	=	=	=
*-	*-	*-	*-	*-
!!!system-decoration: s1{(s2,s3)}
!!!CDT: 1881/03/25-1945/09/26
!!!CBL: Sînnicolau Mare (Nagyszentmiklós), Romania (Hungary)
!!!CDL: New York, United States
!!!CNT: Hungarian
!!!AGN: Instrumental; Chamber
!!!MCN:
!!!MDT: 1922/03/22
!!!MGN:
!!!MLC: London, United Kingdom
!!!MPD: 1922
!!!MPN: Arányi, Jelly; Bartók, Béla
!!!ODT: 1921
!!!PDT: 1923
!!!excerpt-start-measure: 222
!!!excerpt-end-measure: 245
!!!excerpt-start-time: 3:40
!!!excerpt-end-time: 3:56
!!!EEV: 2020/01/22
!!!ONB: Converted from MusicXML on 2020/01/22
